X: 164
T: Xiu hebao
%%abc-version 2.0
%%abcx-abcm2ps-target-version 5.9.1 (29 Sep 2008)
%%abc-creator hum2abc beta
%%abcx-conversion-date 2013/10/02 07:52:29
%%abc-edited-by Helmut Schaffrath
%%humdrum-veritas 2209092441
%%humdrum-veritas-data 676122928
%%continueall 1
%%barnumbers 0
L: 1/4
M: 3/4
K: F
f/ d/cG [I:setbarnb 1]| 
c/ d/cc | 
BGB/ D/ | 
C3 | 
FCF | 
GcC | 
FDC/ D/ | 
C3 |]  



